packages/swarm-icons/src/icons/solid/Archive.svg

<svg xmlns="http://www.w3.org/2000/svg" width="18" height="18" viewBox="0 0 18 18">
  <path fill="#A2A2A2" d="M2,2.5 L16,2.5 L16,5.5 L2,5.5 L2,2.5 Z M3,6.5 L15,6.5 L15,15.5 L3,15.5 L3,6.5 Z M6,8.5 L6,10.5 L12,10.5 L12,8.5 L6,8.5 Z"/>
</svg>

<svg xmlns="http://www.w3.org/2000/svg" width="18" height="18"><path fill="#A2A2A2" d="M2 2.5h14v3H2v-3zm1 4h12v9H3v-9zm3 2v2h6v-2H6z"/></svg>
